X: 1
T: Down In Abbey
M: 9/8
L: 1/8
R: slip jig
K: Gmaj
BAB GEF G2A|BAB GBe dBA|B2A GEF G2A|Bee gfe dBA:|
Bde def ~g3|Bee edB dBA|Bde def g2a|bag age dBA:|
